poi/svg/1127.svg

<?xml version="1.0" encoding="UTF-8" standalone="no"?>
<svg
   xmlns:dc="http://purl.org/dc/elements/1.1/"
   xmlns:cc="http://creativecommons.org/ns#"
   xmlns:rdf="http://www.w3.org/1999/02/22-rdf-syntax-ns#"
   xmlns:svg="http://www.w3.org/2000/svg"
   xmlns="http://www.w3.org/2000/svg"
   xmlns:sodipodi="http://sodipodi.sourceforge.net/DTD/sodipodi-0.dtd"
   xmlns:inkscape="http://www.inkscape.org/namespaces/inkscape"
   inkscape:version="1.0 (4035a4fb49, 2020-05-01)"
   sodipodi:docname="1127.svg"
   id="svg20"
   version="1.2"
   viewBox="0 0 42.519639 42.519639"
   height="14.999999mm"
   width="14.999999mm">
  <metadata
     id="metadata24">
    <rdf:RDF>
      <cc:Work
         rdf:about="">
        <dc:format>image/svg+xml</dc:format>
        <dc:type
           rdf:resource="http://purl.org/dc/dcmitype/StillImage" />
        <dc:title>Qt SVG Document</dc:title>
      </cc:Work>
    </rdf:RDF>
  </metadata>
  <sodipodi:namedview
     inkscape:current-layer="svg20"
     inkscape:window-maximized="0"
     inkscape:window-y="0"
     inkscape:window-x="0"
     inkscape:cy="28.346482"
     inkscape:cx="28.346482"
     inkscape:zoom="5.8410537"
     showgrid="false"
     id="namedview22"
     inkscape:window-height="480"
     inkscape:window-width="1034"
     inkscape:pageshadow="2"
     inkscape:pageopacity="0"
     guidetolerance="10"
     gridtolerance="10"
     objecttolerance="10"
     borderopacity="1"
     bordercolor="#666666"
     pagecolor="#ffffff" />
  <title
     id="title2">Qt SVG Document</title>
  <desc
     id="desc4">Generated with Qt</desc>
  <defs
     id="defs6" />
  <g
     transform="translate(5.25984,5.25984)"
     id="g18"
     stroke-linejoin="bevel"
     stroke-linecap="square"
     fill-rule="evenodd"
     stroke-width="1"
     stroke="#000000"
     fill="none">
    <g
       id="g10"
       font-style="normal"
       font-weight="400"
       font-size="7.8px"
       font-family="'MS Shell Dlg 2'"
       stroke="none"
       fill-opacity="1"
       fill="#3d97f1">
      <path
         id="path8"
         d="M 37.2598,16 C 37.2598,27.7415 27.7415,37.2598 16,37.2598 4.25851,37.2598 -5.25984,27.7415 -5.25984,16 -5.25984,4.25851 4.25851,-5.25984 16,-5.25984 27.7415,-5.25984 37.2598,4.25851 37.2598,16"
         fill-rule="evenodd"
         vector-effect="non-scaling-stroke" />
    </g>
    <g
       id="g14"
       font-style="normal"
       font-weight="400"
       font-size="7.8px"
       font-family="'MS Shell Dlg 2'"
       transform="translate(14.8661,13.1654)"
       stroke="none"
       fill-opacity="0.94902"
       fill="#ffffff">
      <path
         id="path12"
         d="M -2.69629,6.46143 -8.68018,4.15186 c -0.60188,0.60188 -1.31575,0.90283 -2.14162,0.90283 -0.7838,0 -1.4557,-0.25895 -2.0156,-0.77686 -0.5599,-0.5179 -0.8398,-1.17578 -0.8398,-1.97363 0,-0.76986 0.2799,-1.420736 0.8398,-1.952637 0.5599,-0.531902 1.2318,-0.797852 2.0156,-0.797852 0.6019,0 1.13731,0.164469 1.60622,0.4934081 0.46892,0.3289389 0.79436,0.7523599 0.97632,1.2702609 h 9.32227 v -4.99707 h -1.595705 c -0.167969,0.32194 -0.384929,0.48291 -0.650875,0.48291 h -7.43262 c -0.11198,0 -0.24846,-0.05949 -0.40943,-0.17846 -0.16097,-0.11898 -0.24145,-0.31844 -0.24145,-0.59839 0,-0.23796 0.08048,-0.40593 0.24145,-0.50391 0.16097,-0.09798 0.29745,-0.14697 0.40943,-0.14697 h 7.43262 c 0.237952,0 0.391923,0.04899 0.46191,0.14697 0.069987,0.09798 0.132975,0.18197 0.188965,0.25195 H 3.74951 C 3.8055,-4.32357 3.87549,-4.42855 3.95947,-4.54053 4.04346,-4.65251 4.24642,-4.7085 4.56836,-4.7085 H 11.665 c 0.28,0 0.4794,0.08749 0.5984,0.26246 0.119,0.17496 0.1785,0.33243 0.1785,0.47241 0,0.43392 -0.287,0.65088 -0.8608,0.65088 H 4.48438 c -0.05599,0 -0.17147,0 -0.34644,0 -0.17497,0 -0.30444,-0.11898 -0.38843,-0.35694 H 2.1958 v 4.99707 h 5.24902 c 0.68588,0 1.36475,0.16447 2.03663,0.49341 0.67185,0.32894 1.25275,0.97632 1.74265,1.94214 l 1.3018,3.14941 c 0.112,0.22396 0.1819,0.45492 0.2099,0.69287 0.028,0.19597 0.021,0.40943 -0.021,0.64039 -0.0419,0.23095 -0.1329,0.43042 -0.2729,0.59838 -0.294,0.40593 -0.6404,0.61589 -1.0393,0.62989 -0.3989,0.01399 -0.8294,0.02099 -1.2913,0.02099 H -0.197754 C -0.869629,9.48486 -1.28955,9.36239 -1.45752,9.11743 -1.62549,8.87248 -1.76546,8.63802 -1.87744,8.41406 L -2.69629,6.46143 M 6.98291,5.5166 H 10.6782 C 10.6222,5.29264 10.5487,5.07218 10.4578,4.85522 10.3668,4.63826 10.2793,4.4598 10.1953,4.31982 9.99935,3.85791 9.7509,3.50448 9.44995,3.25952 9.14901,3.01457 8.84806,2.8431 8.54712,2.74512 8.24618,2.64714 7.95223,2.59814 7.66528,2.59814 c -0.28694,0 -0.5144,0 -0.68237,0 V 5.5166 m -7.0126952,0 H 5.21924 V 2.38818 H -0.0297852 V 5.5166 M -10.7378,3.41699 c -0.2379,-0.08398 -0.4619,-0.21346 -0.6719,-0.38843 -0.2099,-0.17496 -0.3149,-0.41642 -0.3149,-0.72436 0,-0.32194 0.098,-0.5669 0.2939,-0.73486 0.196,-0.16797 0.427,-0.25196 0.6929,-0.25196 h 1.49073 C -9.44303,1.07943 -9.67749,0.876465 -9.95044,0.708496 -10.2234,0.540527 -10.5138,0.456543 -10.8218,0.456543 c -0.4899,0 -0.9203,0.185465 -1.2912,0.556397 -0.371,0.37093 -0.5564,0.80135 -0.5564,1.29126 0,0.5179 0.1854,0.95532 0.5564,1.31226 0.3709,0.35693 0.8013,0.5354 1.2912,0.5354 0.4199,0 0.7909,-0.13298 1.11282,-0.39893 L -10.7378,3.41699 m 22.0459,8.20951 c 0.3219,0 0.6474,0.0874 0.9763,0.2624 0.329,0.175 0.4934,0.4164 0.4934,0.7244 0,0.2939 -0.1294,0.5389 -0.3884,0.7348 -0.2589,0.196 -0.6194,0.294 -1.0813,0.294 H -1.66748 c -0.29395,0 -0.60539,-0.077 -0.93433,-0.231 -0.32894,-0.1539 -0.5214,-0.3919 -0.57739,-0.7138 0,-0.308 0.17147,-0.5634 0.51441,-0.7664 0.34293,-0.203 0.67537,-0.3044 0.99731,-0.3044 H 11.3081"
         fill-rule="evenodd"
         vector-effect="none" />
    </g>
    <g
       id="g16"
       font-style="normal"
       font-weight="400"
       font-size="7.8px"
       font-family="'MS Shell Dlg 2'"
       stroke="none"
       fill-opacity="1"
       fill="#3d97f1" />
  </g>
</svg>

<?xml version="1.0" encoding="UTF-8" standalone="no"?>
<svg width="11.2889mm" height="11.2889mm"
 viewBox="0 0 32 32"
 xmlns="http://www.w3.org/2000/svg" xmlns:xlink="http://www.w3.org/1999/xlink"  version="1.2" baseProfile="tiny">
<title>Qt SVG Document</title>
<desc>Generated with Qt</desc>
<defs>
</defs>
<g fill="none" stroke="black" stroke-width="1" fill-rule="evenodd" stroke-linecap="square" stroke-linejoin="bevel" >

<g fill="#3d97f1" fill-opacity="1" stroke="none" transform="matrix(1,0,0,1,0,0)"
font-family="MS Shell Dlg 2" font-size="7.8" font-weight="400" font-style="normal" 
>
<path vector-effect="non-scaling-stroke" fill-rule="evenodd" d="M37.2598,16 C37.2598,27.7415 27.7415,37.2598 16,37.2598 C4.25851,37.2598 -5.25984,27.7415 -5.25984,16 C-5.25984,4.25851 4.25851,-5.25984 16,-5.25984 C27.7415,-5.25984 37.2598,4.25851 37.2598,16 "/>
</g>

<g fill="#ffffff" fill-opacity="0.94902" stroke="none" transform="matrix(1,0,0,1,14.8661,13.1654)"
font-family="MS Shell Dlg 2" font-size="7.8" font-weight="400" font-style="normal" 
>
<path vector-effect="none" fill-rule="evenodd" d="M-2.69629,6.46143 L-8.68018,4.15186 C-9.28206,4.75374 -9.99593,5.05469 -10.8218,5.05469 C-11.6056,5.05469 -12.2775,4.79574 -12.8374,4.27783 C-13.3973,3.75993 -13.6772,3.10205 -13.6772,2.3042 C-13.6772,1.53434 -13.3973,0.883464 -12.8374,0.351563 C-12.2775,-0.180339 -11.6056,-0.446289 -10.8218,-0.446289 C-10.2199,-0.446289 -9.68449,-0.28182 -9.21558,0.0471191 C-8.74666,0.376058 -8.42122,0.799479 -8.23926,1.31738 L1.08301,1.31738 L1.08301,-3.67969 L-0.512695,-3.67969 C-0.680664,-3.35775 -0.897624,-3.19678 -1.16357,-3.19678 L-8.59619,-3.19678 C-8.70817,-3.19678 -8.84465,-3.25627 -9.00562,-3.37524 C-9.16659,-3.49422 -9.24707,-3.69368 -9.24707,-3.97363 C-9.24707,-4.21159 -9.16659,-4.37956 -9.00562,-4.47754 C-8.84465,-4.57552 -8.70817,-4.62451 -8.59619,-4.62451 L-1.16357,-4.62451 C-0.925618,-4.62451 -0.771647,-4.57552 -0.70166,-4.47754 C-0.631673,-4.37956 -0.568685,-4.29557 -0.512695,-4.22559 L3.74951,-4.22559 C3.8055,-4.32357 3.87549,-4.42855 3.95947,-4.54053 C4.04346,-4.65251 4.24642,-4.7085 4.56836,-4.7085 L11.665,-4.7085 C11.945,-4.7085 12.1444,-4.62101 12.2634,-4.44604 C12.3824,-4.27108 12.4419,-4.11361 12.4419,-3.97363 C12.4419,-3.53971 12.1549,-3.32275 11.5811,-3.32275 L4.48438,-3.32275 C4.42839,-3.32275 4.31291,-3.32275 4.13794,-3.32275 C3.96297,-3.32275 3.8335,-3.44173 3.74951,-3.67969 L2.1958,-3.67969 L2.1958,1.31738 L7.44482,1.31738 C8.1307,1.31738 8.80957,1.48185 9.48145,1.81079 C10.1533,2.13973 10.7342,2.78711 11.2241,3.75293 L12.5259,6.90234 C12.6379,7.1263 12.7078,7.35726 12.7358,7.59521 C12.7638,7.79118 12.7568,8.00464 12.7148,8.2356 C12.6729,8.46655 12.5819,8.66602 12.4419,8.83398 C12.1479,9.23991 11.8015,9.44987 11.4026,9.46387 C11.0037,9.47786 10.5732,9.48486 10.1113,9.48486 L-0.197754,9.48486 C-0.869629,9.48486 -1.28955,9.36239 -1.45752,9.11743 C-1.62549,8.87248 -1.76546,8.63802 -1.87744,8.41406 L-2.69629,6.46143 M6.98291,5.5166 L10.6782,5.5166 C10.6222,5.29264 10.5487,5.07218 10.4578,4.85522 C10.3668,4.63826 10.2793,4.4598 10.1953,4.31982 C9.99935,3.85791 9.7509,3.50448 9.44995,3.25952 C9.14901,3.01457 8.84806,2.8431 8.54712,2.74512 C8.24618,2.64714 7.95223,2.59814 7.66528,2.59814 C7.37834,2.59814 7.15088,2.59814 6.98291,2.59814 L6.98291,5.5166 M-0.0297852,5.5166 L5.21924,5.5166 L5.21924,2.38818 L-0.0297852,2.38818 L-0.0297852,5.5166 M-10.7378,3.41699 C-10.9757,3.33301 -11.1997,3.20353 -11.4097,3.02856 C-11.6196,2.8536 -11.7246,2.61214 -11.7246,2.3042 C-11.7246,1.98226 -11.6266,1.7373 -11.4307,1.56934 C-11.2347,1.40137 -11.0037,1.31738 -10.7378,1.31738 L-9.24707,1.31738 C-9.44303,1.07943 -9.67749,0.876465 -9.95044,0.708496 C-10.2234,0.540527 -10.5138,0.456543 -10.8218,0.456543 C-11.3117,0.456543 -11.7421,0.642008 -12.113,1.01294 C-12.484,1.38387 -12.6694,1.81429 -12.6694,2.3042 C-12.6694,2.8221 -12.484,3.25952 -12.113,3.61646 C-11.7421,3.97339 -11.3117,4.15186 -10.8218,4.15186 C-10.4019,4.15186 -10.0309,4.01888 -9.70898,3.75293 L-10.7378,3.41699 M11.3081,11.6265 C11.63,11.6265 11.9555,11.7139 12.2844,11.8889 C12.6134,12.0639 12.7778,12.3053 12.7778,12.6133 C12.7778,12.9072 12.6484,13.1522 12.3894,13.3481 C12.1305,13.5441 11.77,13.6421 11.3081,13.6421 L-1.66748,13.6421 C-1.96143,13.6421 -2.27287,13.5651 -2.60181,13.4111 C-2.93075,13.2572 -3.12321,13.0192 -3.1792,12.6973 C-3.1792,12.3893 -3.00773,12.1339 -2.66479,11.9309 C-2.32186,11.7279 -1.98942,11.6265 -1.66748,11.6265 L11.3081,11.6265"/>
</g>

<g fill="#3d97f1" fill-opacity="1" stroke="none" transform="matrix(1,0,0,1,0,0)"
font-family="MS Shell Dlg 2" font-size="7.8" font-weight="400" font-style="normal" 
>
</g>
</g>
</svg>
